symbols/web/brightness_auto/materialsymbolsoutlined/brightness_auto_wght600grad200_40px.svg

<svg xmlns="http://www.w3.org/2000/svg" height="40" width="40"><path d="M12.917 27.083H16l1.208-4h5.625l1.25 4h3.042L21.5 11.292h-2.917Zm5-6.458 2-5.958h.208l2.042 5.958Zm2.125 19.042-5.875-5.709H6.042v-8.083L.25 20l5.792-5.875V6h8.083L20.042.208 25.875 6H34v8.125L39.792 20 34 25.833v8.125h-8.125Zm0-19.709Zm0 14.084 4.125-4.084h5.791v-5.791L34.083 20l-4.125-4.167v-5.791h-5.791l-4.125-4.125-4.209 4.125h-5.791v5.791L5.917 20l4.125 4.167v5.791h5.791Z"/></svg>

<svg xmlns="http://www.w3.org/2000/svg" height="40" width="40"><path d="M12.917 27.083H16L17.208 23.083H22.833L24.083 27.083H27.125L21.5 11.292H18.583ZM17.917 20.625 19.917 14.667H20.125L22.167 20.625ZM20.042 39.667 14.167 33.958H6.042V25.875L0.25 20L6.042 14.125V6H14.125L20.042 0.208L25.875 6H34V14.125L39.792 20L34 25.833V33.958H25.875ZM20.042 19.958ZM20.042 34.042 24.167 29.958H29.958V24.167L34.083 20L29.958 15.833V10.042H24.167L20.042 5.917L15.833 10.042H10.042V15.833L5.917 20L10.042 24.167V29.958H15.833Z"/></svg>
